X:0196
M:6/8
L:1/8
Q:3/8=120
K:D
d/e/|Tfef def|ede cde|dcd Bed|cAA A3 |
      BAB GAB|AGA FGA|GFG EAG|FDD D2|]

